icons/_assets/in_progress_candidate.svg

<svg width="100" height="100" xmlns="http://www.w3.org/2000/svg"><path d="M51.8077224,57.2479075 L83.8847277,72.1088139 C84.2304243,72.2688758 84.4639211,72.601732 84.4960648,72.9806666 C84.528815,73.3602076 84.3553602,73.7276226 84.0424138,73.94407 L51.964802,96.1120484 C51.7840694,96.2369453 51.5730126,96.3 51.3613492,96.3 C51.1927463,96.3 51.0235369,96.2599845 50.8682767,96.1787409 C50.5189412,95.9956397 50.3,95.6336814 50.3,95.2389831 L50.3,58.2107046 C50.3,57.8487462 50.484978,57.511646 50.7900401,57.3170252 C51.0957087,57.1217981 51.4790073,57.0963337 51.8077224,57.2479075 Z M47.0099202,3.66088144 C53.5713609,2.91297511 59.7321236,4.7894667 64.3816035,8.94061583 C68.9920913,13.0594812 71.533305,18.9109066 71.533305,25.4174226 C71.533305,33.8138817 67.2038298,41.9144067 60.3425527,47.0138903 C62.06762,47.6461132 63.7187367,48.4505161 65.2824571,49.4230633 C66.3863388,50.1090925 66.7251673,51.560515 66.039443,52.6635424 C65.3537186,53.7679148 63.902941,54.1082391 62.8004039,53.4222099 C60.1126333,51.7515271 57.1115809,50.6807835 53.8779201,50.2355371 C52.8385771,50.0929507 52.0170524,49.2791317 51.8691511,48.2379816 C51.7212498,47.1981765 52.2792411,46.1852746 53.2379107,45.754825 C61.3671055,42.1175251 66.8273537,33.9457069 66.8273537,25.4174226 C66.8273537,20.2708586 64.8454759,15.6663921 61.2474399,12.4541614 C57.6117563,9.20695657 52.7417689,7.75284373 47.5423649,8.33798627 C36.6151459,9.5849452 27.7249314,19.4866331 27.7249314,30.4106389 C27.7249314,38.711592 32.995597,45.4494747 40.8397456,47.1779992 C41.8616094,47.4026401 42.6118725,48.2743008 42.6817895,49.3194864 C42.7517064,50.3633269 42.1251426,51.3278032 41.1436156,51.6883048 C32.12029,54.990661 24.9107725,62.7804551 22.329222,72.0203265 C22.0280412,73.1004862 22.2727506,74.2115845 23.0041899,75.0684484 C23.7383183,75.9306929 24.7991742,76.3503813 25.9232243,76.2252819 L25.9232243,76.2252819 L36.3072422,75.0415452 C37.6047402,74.8935782 38.7637488,75.8217353 38.9103056,77.1130843 C39.0595515,78.4044334 38.1304622,79.570683 36.839687,79.7173049 L36.839687,79.7173049 L26.4570137,80.9010416 C26.1504546,80.9373607 25.84524,80.9535026 25.54137,80.9535026 C23.2018399,80.9535026 20.9644961,79.9325298 19.4222887,78.1232959 C17.6837758,76.0813503 17.0773803,73.3264723 17.7967186,70.7505 C20.2559143,61.9504943 26.3481045,54.2898351 34.2514137,49.7337942 C27.3565227,46.0695913 23.0189801,38.8743558 23.0189801,30.4106389 C23.0189801,17.1689305 33.7808186,5.17014564 47.0099202,3.66088144 Z" fill="#134B45" fill-rule="evenodd"/></svg>

<svg width="100" height="100" xmlns="http://www.w3.org/2000/svg"><path d="m51.808 57.248 32.077 14.86a1.06 1.06 0 0 1 .157 1.836L51.965 96.112a1.06 1.06 0 0 1-1.665-.873V58.211a1.06 1.06 0 0 1 1.508-.963zM47.01 3.66c6.561-.748 12.722 1.128 17.372 5.28 4.61 4.118 7.151 9.97 7.151 16.476 0 8.397-4.33 16.497-11.19 21.597a26.806 26.806 0 0 1 4.94 2.41 2.353 2.353 0 0 1-2.483 3.998c-2.687-1.67-5.688-2.741-8.922-3.186a2.35 2.35 0 0 1-2.009-1.998 2.358 2.358 0 0 1 1.369-2.483c8.13-3.637 13.59-11.81 13.59-20.338 0-5.146-1.983-9.75-5.58-12.963-3.636-3.247-8.506-4.701-13.706-4.116C36.615 9.584 27.725 19.486 27.725 30.41c0 8.3 5.27 15.038 13.115 16.767a2.356 2.356 0 0 1 .304 4.51C32.12 54.991 24.91 62.78 22.329 72.02a3.273 3.273 0 0 0 .675 3.048 3.295 3.295 0 0 0 2.92 1.157l10.383-1.183a2.347 2.347 0 0 1 2.603 2.071 2.35 2.35 0 0 1-2.07 2.604l-10.383 1.184a8.035 8.035 0 0 1-7.035-2.778 8.026 8.026 0 0 1-1.625-7.372c2.459-8.8 8.551-16.461 16.454-21.017C27.357 46.07 23.02 38.874 23.02 30.41c0-13.242 10.762-25.24 23.99-26.75z" fill="#134B45" fill-rule="evenodd"/></svg>
